lib/assets/icons/svg/outlined-product-childish.svg

<svg xmlns="http://www.w3.org/2000/svg" viewBox="0 0 24 24"><path d="M11.293 21.773a7.093 7.093 0 0 1-3.45-.91c-1.85-1.44-2.23-3.64-1.06-6.09a1.604 1.604 0 0 0 0-1.25 3.723 3.723 0 0 1 0-2.65 3.65 3.65 0 0 1 .17-.39 8.306 8.306 0 0 1 1-1.65l.272-.337a1.539 1.539 0 0 1-.137-1.563c.16-.336.43-.595.753-.744a3.739 3.739 0 0 1-.038-.496c-.01-.12-.01-.24 0-.36a1.205 1.205 0 0 1 0-.19 3.14 3.14 0 0 1 1.12-2.12c1.807-1.606 4.674-.654 5.162 1.714.07.341.083.691.038 1.036-.001.142-.01.283-.028.424a1.552 1.552 0 0 1 .6 2.294 9.35 9.35 0 0 1 2.178 5.772c.13 3.24-.85 5.81-2.62 6.88a7.808 7.808 0 0 1-3.46.62zm-2.34-12.58l-.21.26a8.224 8.224 0 0 0-.93 1.46c0 .1-.09.2-.12.3a2.76 2.76 0 0 0 0 2c.252.647.23 1.369-.06 2-1 2-.7 3.75.71 4.88a6.261 6.261 0 0 0 3.39.72 7.004 7.004 0 0 0 3-.52c1.4-.85 2.21-3.09 2.09-6a8.445 8.445 0 0 0-1.9-5.12zm5.25-3.49a2.27 2.27 0 0 0-.5-1.68 2.221 2.221 0 0 0-1.52-.8 2.23 2.23 0 0 0-2.45 2v.15c-.01.096-.01.194 0 .29-.014.13-.016.26-.006.39h4.481a3.141 3.141 0 0 0-.005-.35zm-4.59 1.24a.66.66 0 0 0-.252 1.27h5.197a.662.662 0 0 0-.255-1.27z"/></svg>

<svg viewBox="0 0 24 24" xmlns="http://www.w3.org/2000/svg">
  <path  d="M 11.293 21.773 C 10.084 21.769 8.897 21.455 7.843 20.863 C 5.993 19.423 5.613 17.223 6.783 14.773 C 6.952 14.374 6.952 13.922 6.783 13.523 C 6.458 12.67 6.458 11.726 6.783 10.873 C 6.832 10.74 6.889 10.609 6.953 10.483 C 7.221 9.896 7.557 9.342 7.953 8.833 L 8.225 8.496 C 7.919 8.064 7.829 7.479 8.088 6.933 C 8.248 6.597 8.518 6.338 8.841 6.189 C 8.817 6.025 8.805 5.859 8.803 5.693 C 8.793 5.573 8.793 5.453 8.803 5.333 C 8.798 5.27 8.798 5.206 8.803 5.143 C 8.881 4.316 9.284 3.554 9.923 3.023 C 11.73 1.417 14.597 2.369 15.085 4.737 C 15.155 5.078 15.168 5.428 15.123 5.773 C 15.122 5.915 15.113 6.056 15.095 6.197 C 15.824 6.545 16.215 7.447 15.828 8.263 C 15.79 8.344 15.745 8.42 15.695 8.491 C 17.052 10.112 17.821 12.146 17.873 14.263 C 18.003 17.503 17.023 20.073 15.253 21.143 C 14.162 21.61 12.978 21.822 11.793 21.763 Z M 8.953 9.193 L 8.743 9.453 C 8.382 9.906 8.071 10.395 7.813 10.913 C 7.813 11.013 7.723 11.113 7.693 11.213 C 7.443 11.856 7.443 12.57 7.693 13.213 C 7.945 13.86 7.923 14.582 7.633 15.213 C 6.633 17.213 6.933 18.963 8.343 20.093 C 9.383 20.647 10.558 20.897 11.733 20.813 C 12.759 20.862 13.783 20.684 14.733 20.293 C 16.133 19.443 16.943 17.203 16.823 14.293 C 16.774 12.423 16.106 10.622 14.923 9.173 Z M 14.203 5.703 C 14.268 5.099 14.088 4.493 13.703 4.023 C 13.324 3.563 12.776 3.275 12.183 3.223 C 10.953 3.095 9.854 3.992 9.733 5.223 L 9.733 5.373 C 9.723 5.469 9.723 5.567 9.733 5.663 C 9.719 5.793 9.717 5.923 9.727 6.053 L 14.208 6.053 C 14.213 5.936 14.211 5.819 14.203 5.703 Z M 9.613 6.943 C 9.105 6.943 8.787 7.493 9.041 7.933 C 9.115 8.061 9.228 8.158 9.361 8.213 L 14.558 8.213 C 14.907 8.068 15.083 7.633 14.875 7.273 C 14.757 7.069 14.539 6.943 14.303 6.943 Z"/>
</svg>
